build/img/fb.svg

<svg width="18" height="18" viewBox="0 0 18 18" fill="none" xmlns="http://www.w3.org/2000/svg">
<path fill-rule="evenodd" clip-rule="evenodd" d="M16 0H2C0.895508 0 0 0.895508 0 2V16C0 17.1045 0.895508 18 2 18H9V11H7V8H9V5.5C9 3.56689 10.5669 2 12.5 2H15V5H13C12.4478 5 12 5.44775 12 6V8H15V11H12V18H16C17.1045 18 18 17.1045 18 16V2C18 0.895508 17.1045 0 16 0Z" fill="#91A1BB"/>
</svg>

<svg width="18" height="18" viewBox="0 0 18 18" fill="none" xmlns="http://www.w3.org/2000/svg"><path fill-rule="evenodd" clip-rule="evenodd" d="M16 0H2a2 2 0 0 0-2 2v14a2 2 0 0 0 2 2h7v-7H7V8h2V5.5A3.5 3.5 0 0 1 12.5 2H15v3h-2a1 1 0 0 0-1 1v2h3v3h-3v7h4a2 2 0 0 0 2-2V2a2 2 0 0 0-2-2z" fill="#91A1BB"/></svg>
